svgs/sharp-regular/backpack.svg

<svg xmlns="http://www.w3.org/2000/svg" viewBox="0 0 448 512"><!--! Font Awesome Pro 6.6.0 by @fontawesome - https://fontawesome.com License - https://fontawesome.com/license (Commercial License) Copyright 2024 Fonticons, Inc. --><path d="M136 0l24 0L288 0l24 0 0 24 0 56 8 0c70.7 0 128 57.3 128 128l0 256 0 48-48 0-32 0-48 0-192 0-48 0-32 0L0 512l0-48L0 208C0 137.3 57.3 80 128 80l8 0 0-56 0-24zm-8 464l192 0 0-64-192 0 0 64zm240 0l32 0 0-256c0-44.2-35.8-80-80-80l-32 0-128 0-32 0c-44.2 0-80 35.8-80 80l0 256 32 0 0-88 0-112 0-24 24 0 240 0 24 0 0 24 0 112 0 88zM264 48l-80 0 0 32 80 0 0-32zM144 160l160 0 24 0 0 48-24 0-160 0-24 0 0-48 24 0zM320 352l0-64-192 0 0 64 192 0z"/></svg>

<svg xmlns="http://www.w3.org/2000/svg" viewBox="0 0 448 512"><!--! Font Awesome Pro 6.5.2 by @fontawesome - https://fontawesome.com License - https://fontawesome.com/license (Commercial License) Copyright 2024 Fonticons, Inc. --><path d="M136 0h24H288h24V24 80h8c70.7 0 128 57.3 128 128V464v48H400 368 320 128 80 48 0V464 208C0 137.3 57.3 80 128 80h8V24 0zm-8 464H320V400H128v64zm240 0h32V208c0-44.2-35.8-80-80-80H288 160 128c-44.2 0-80 35.8-80 80V464H80V376 264 240h24H344h24v24V376v88zM264 48H184V80h80V48zM144 160H304h24v48H304 144 120V160h24zM320 352V288H128v64H320z"/></svg>
